X:1
T:Fred! Fred!
T:Fred! Fred!
T:(Synges af Des Dur)
T:Andreas Peter Berggren
C:Andreas Peter Berggren
%%score [ 1 2 3 4 ]
L:1/8
Q:1/4=92
M:4/4
K:C
V:1 treble-8 nm="T1"
V:2 treble-8 nm="T2"
V:3 bass nm="B1"
V:4 bass nm="B2"
V:1
!pp!"^Andante" G6 z2 | G6 z2 |!p! G4 G2 G2 |!<(! G4!<)! G4 |!>(! A6!>)! A2 | %5
w: Fred!|Fred!|Fred med din|A- ske,|tab- te|
 G4 z!mf!!<(! G c3/2 d/!<)! |!f! e6 e2 |!>(! f6 e2!>)! | d2 c2!<(! B2 c2!<)! |!>(! (c6 B2)!>)! | %10
w: Ven! Vi se's i-|gjen naar|Ti- me-|glas- set er ud-|run- *|
!p! c6 z2 |!pp! G6 z2 | !fermata!G8 |] %13
w: det!|Fred!|Fred!|
V:2
!pp! E6 z2 | D6 z2 |!p! E4 E2 E2 |!<(! F4!<)! E4 |!>(! F6!>)! F2 | E4 z!mf!!<(! G G3/2 B/!<)! | %6
w: Fred!|Fred!|Fred med din|A- ske,|tab- te|Ven! Vi se's i-|
!f! c6 c2 |!>(! c4 B4!>)! | A2 G2!<(! G2 G2!<)! |!>(! G8!>)! |!p! G6 z2 |!pp! E6 z2 | %12
w: gjen naar|Ti- me-|glas- set er ud-|run-|det!|Fred!|
 !fermata!D8 |] %13
w: Fred!|
V:3
!pp! C,6 z2 | B,,6 z2 |!p! C,4 C,2 C,2 |!<(! D,4!<)! C,4 |!>(! C,6!>)! C,2 | %5
w: Fred!|Fred!|Fred med din|A- ske,|tab- te|
 C,4 z!mf!!<(! G, G,3/2 G,/!<)! |!f! C6 C2 |!>(! C4 =B,4!>)! | A,2 G,2!<(! F,2 E,2!<)! | %9
w: Ven! Vi se's i-|gjen naar|Ti- me-|glas- set er ud-|
!>(! (E,4 D,4)!>)! |!p! E,6 z2 |!pp! C,6 z2 | !fermata!B,,8 |] %13
w: run- *|det!|Fred!|Fred!|
V:4
!pp! C,6 z2 | G,,6 z2 |!p! C,4 C,2 C,2 |!<(! B,,4!<)! C,4 |!>(! F,,6!>)! F,,2 | %5
w: Fred!|Fred!|Fred med din|A- ske,|tab- te|
 C,4 z!mf!!<(! G, E,3/2 G,/!<)! |!f! C6 _B,2 |!>(! A,4 G,4!>)! | F,2 E,2!<(! D,2 C,2!<)! | %9
w: Ven! Vi se's i-|gjen naar|Ti- me-|glas- set er ud-|
!>(! G,,8!>)! |!p! C,6 z2 |!pp! C,6 z2 | !fermata!G,,8 |] %13
w: run-|det!|Fred!|Fred!|

